images/head_img.svg

<svg width="57" height="57" viewBox="0 0 57 57" fill="none" xmlns="http://www.w3.org/2000/svg">
<path d="M34.5227 50.9772C22.1089 54.3035 9.34903 46.9366 6.02275 34.5228C2.69647 22.1089 10.0634 9.34904 22.4772 6.02276C34.8911 2.69648 47.6509 10.0634 50.9772 22.4772C54.3035 34.8911 46.9366 47.651 34.5227 50.9772ZM23.6818 10.5182C13.7507 13.1792 7.85717 23.3871 10.5182 33.3182C13.1792 43.2493 23.3871 49.1428 33.3182 46.4818C43.2493 43.8208 49.1428 33.6129 46.4818 23.6818C43.8208 13.7507 33.6128 7.85718 23.6818 10.5182Z" fill="white"/>
<g clip-path="url(#clip0_1_168)">
<path d="M26.2038 16.0928C25.2335 16.1109 24.4987 16.147 24.3009 16.1832C23.9335 16.2466 23.7545 16.3732 23.7545 16.5678V16.6808H22.4403L22.0635 17.0427C21.47 17.6127 20.8011 18.6487 20.0993 20.0827C19.7083 20.8925 19.68 20.9332 19.5529 20.9332C19.4398 20.9332 19.421 20.9151 19.421 20.8065C19.4257 20.5803 19.5858 20.3134 19.7884 20.2139C19.9768 20.1234 20.0569 20.0148 20.0051 19.9289C19.9674 19.8701 18.9594 19.9198 18.3941 20.0058C17.5039 20.146 17.2024 20.3632 17.0941 20.9467C17.0658 21.1005 17.0752 21.1322 17.2071 21.2498C17.2916 21.3244 17.3933 21.3787 17.5039 21.4082C17.6782 21.4353 19.0206 21.5213 19.2703 21.5213H19.4445L19.1054 21.847C18.771 22.1591 18.6673 22.3355 18.6673 22.5934C18.6673 22.72 18.5731 22.8105 17.9467 23.3307C17.6687 23.5615 17.405 23.7967 17.3673 23.851C17.2401 24.0365 17.2071 25.3167 17.2401 28.6371C17.2684 31.7087 17.2731 31.7992 17.3626 31.9123C17.5416 32.1294 17.6829 32.1521 18.8557 32.1521C20.071 32.1521 20.1982 32.1294 20.363 31.8716C20.4337 31.7585 20.4573 31.6454 20.4573 31.3921V31.0573L20.8435 31.0844C21.0602 31.098 21.5642 31.1206 21.9646 31.1387L22.6946 31.1614L23.3164 30.9804C23.6603 30.8764 23.9476 30.7949 23.957 30.7949C23.9664 30.7949 23.99 30.8356 24.0041 30.8854C24.0277 30.9759 24.0701 30.9759 28.1351 30.9759C32.2001 30.9759 32.2424 30.9759 32.266 30.8854C32.2801 30.8356 32.299 30.7949 32.3131 30.7949C32.3272 30.7949 32.6099 30.8764 32.9537 30.9804L33.5755 31.1614L34.3056 31.1387C34.7059 31.1206 35.2099 31.098 35.4266 31.0844L35.8129 31.0573V31.3921C35.8129 31.6454 35.8364 31.7585 35.9071 31.8716C36.0719 32.1294 36.1991 32.1521 37.4144 32.1521C38.5872 32.1521 38.7285 32.1294 38.9075 31.9123C38.997 31.7992 39.0017 31.7087 39.03 28.6371C39.063 25.3167 39.03 24.0365 38.9028 23.851C38.8651 23.7967 38.6014 23.5615 38.3235 23.3307C37.697 22.8105 37.6028 22.72 37.6028 22.5934C37.6028 22.3355 37.4992 22.1591 37.1741 21.8515L36.8397 21.5348L37.8006 21.4805C38.8086 21.4217 39.0065 21.3765 39.1383 21.182C39.1949 21.1005 39.1996 21.0372 39.1572 20.8608C39.0347 20.3406 38.738 20.1415 37.876 20.0058C37.3107 19.9198 36.3027 19.8701 36.2651 19.9289C36.2132 20.0148 36.2933 20.1234 36.4817 20.2139C36.6843 20.3134 36.8444 20.5803 36.8491 20.8065C36.8491 20.9151 36.8303 20.9332 36.7172 20.9332C36.5901 20.9332 36.5618 20.8925 36.1708 20.0827C35.469 18.6487 34.8001 17.6127 34.2066 17.0427L33.8298 16.6808H32.5156V16.5723C32.5156 16.3823 32.3696 16.2647 32.0399 16.2013C31.5359 16.0973 28.8322 16.0475 26.2038 16.0928ZM29.4539 17.3142C30.6833 17.3685 33.5472 17.5268 33.9335 17.5675L34.2019 17.5946L34.8849 18.8884C35.5114 20.0827 35.9071 20.9241 35.9071 21.0689C35.9071 21.1186 35.2194 21.1232 32.2236 21.0915C30.1935 21.0689 28.3564 21.0508 28.1351 21.0508C27.9137 21.0508 26.0767 21.0689 24.0512 21.0915C21.0508 21.1232 20.363 21.1186 20.363 21.0689C20.363 20.9241 20.7587 20.0827 21.3852 18.8884L22.0682 17.5946L22.3367 17.5675C22.6994 17.5313 25.5632 17.3639 26.6278 17.3187C27.8948 17.2644 28.2764 17.2644 29.4539 17.3142ZM19.6424 24.2355C20.0522 24.3576 20.9848 24.6064 21.7102 24.7829L23.0385 25.1041L23.3117 24.9774L23.5896 24.8462H25.4973C27.3202 24.8462 27.4144 24.8507 27.5651 24.9367C27.8713 25.1131 27.9231 25.2217 27.9372 25.8007C27.9561 26.3662 27.9231 26.5109 27.7253 26.6874C27.5698 26.8276 27.1318 26.8547 25.7799 26.8095C24.282 26.7552 23.8816 26.6376 23.3588 26.0812L23.0903 25.8007L22.657 25.7826L22.2236 25.7645L21.8703 25.9952C21.5171 26.2259 21.5171 26.2259 21.1355 26.2259C20.7446 26.2259 19.2137 26.0043 18.7615 25.8821C18.1256 25.7102 17.8948 25.4433 17.8948 24.8914C17.8948 24.5114 17.9749 24.2581 18.1304 24.1631C18.2246 24.0998 18.5307 24.0365 18.8181 24.0138C18.8605 24.0138 19.2326 24.1088 19.6424 24.2355ZM38.0644 24.1269C38.2764 24.2084 38.3706 24.4391 38.3753 24.8688C38.38 25.4117 38.1963 25.656 37.6452 25.8414C37.2966 25.9636 35.8694 26.1852 35.2947 26.2079L34.753 26.2305L34.3998 25.9998L34.0465 25.7645L33.6226 25.7826L33.1986 25.8007L32.8454 26.14C32.5675 26.4114 32.4356 26.5064 32.2142 26.5833C31.7432 26.7507 31.112 26.814 29.8826 26.8231C28.6296 26.8276 28.6014 26.8231 28.4177 26.529C28.3376 26.4069 28.3235 26.2983 28.3235 25.8595C28.3235 25.3891 28.3329 25.3167 28.4318 25.1855C28.5032 25.0875 28.5945 25.0044 28.7003 24.9412C28.8604 24.8507 28.9311 24.8462 30.7728 24.8462H32.6805L32.949 24.9774L33.2175 25.1086L34.5552 24.7874C35.29 24.6064 36.218 24.3622 36.6183 24.2355C37.2684 24.0319 37.372 24.0138 37.6263 24.0365C37.7754 24.0507 37.9224 24.0811 38.0644 24.1269ZM19.0065 27.2302C19.1102 27.3381 19.2077 27.4514 19.2985 27.5695C19.3769 27.6754 19.4618 27.7766 19.5529 27.8726C19.6329 27.9178 20.5938 28.0852 21.55 28.2164C23.1563 28.4335 23.1892 28.4426 23.1892 28.5285C23.1892 28.5692 23.0479 28.8452 22.8736 29.1438C22.5533 29.6776 22.5533 29.6776 22.2566 29.8088C21.8374 29.9942 21.1402 30.1616 20.8105 30.1616C20.4667 30.1616 19.534 30.053 19.2231 29.9807C19.1052 29.9544 18.9965 29.8987 18.9081 29.8193C18.8196 29.7399 18.7544 29.6395 18.7191 29.5283C18.6202 29.2252 18.526 28.5059 18.4931 27.8409L18.4648 27.1759H18.7003C18.8275 27.1759 18.9641 27.2031 19.0065 27.2302ZM37.9655 27.8635C37.9278 28.619 37.8053 29.4197 37.6781 29.673C37.6266 29.7728 37.5444 29.8549 37.4426 29.9083C37.226 30.0033 36.5524 30.1118 35.9353 30.1435C35.469 30.1707 35.3654 30.1616 34.965 30.0576C34.7086 29.9899 34.4569 29.9068 34.2114 29.8088C33.9052 29.6776 33.9052 29.673 33.6084 29.1754C33.241 28.5647 33.2222 28.5014 33.3682 28.4471C33.4294 28.4245 33.8204 28.3657 34.2349 28.3114C35.1157 28.1938 36.2933 28.0128 36.656 27.9359C36.8868 27.8862 36.9245 27.859 37.1694 27.565C37.3155 27.3885 37.4568 27.2302 37.4803 27.2121C37.5039 27.194 37.6358 27.1759 37.7629 27.1759H37.9937L37.9655 27.8635ZM31.583 28.4381C31.8562 28.4652 32.1341 28.5059 32.1953 28.5285C32.3602 28.5873 32.5863 28.8271 32.8831 29.2523C33.1186 29.5916 33.1468 29.664 33.1515 29.863C33.1562 30.0621 33.1374 30.0983 33.0338 30.148C32.4167 30.433 27.1694 30.5371 24.4375 30.3199C23.2175 30.2204 23.0621 30.1661 23.1092 29.8359C23.1515 29.5373 23.7074 28.7502 23.9994 28.5783C24.1548 28.4878 24.4563 28.4516 25.4266 28.3973C26.2792 28.3476 30.9707 28.3792 31.583 28.4381Z" fill="white"/>
<path d="M24.5739 24.9593C23.8768 24.9819 23.6931 25 23.5942 25.0634C23.4435 25.1629 23.4341 25.3303 23.5659 25.7374C23.7072 26.1762 23.8391 26.2848 24.4892 26.5019C24.9037 26.6422 24.9225 26.6421 26.1802 26.6738C26.9856 26.6964 27.4896 26.6919 27.5556 26.6648C27.7722 26.5698 27.8523 26.1626 27.7581 25.6153C27.6592 25.0453 27.6027 25.0091 26.7454 24.9774C25.5914 24.9367 25.4077 24.9367 24.5739 24.9593Z" fill="white"/>
<path d="M29.8307 24.9638C28.8792 24.9955 28.6908 25.0362 28.6107 25.2217C28.54 25.38 28.4647 25.8324 28.4647 26.0767C28.4647 26.33 28.5824 26.6105 28.7143 26.6648C28.7803 26.6919 29.2984 26.6964 30.0897 26.6738C31.3474 26.6422 31.3662 26.6422 31.7807 26.5019C32.4307 26.2848 32.5626 26.1762 32.7039 25.7374C32.9159 25.086 32.8405 25.0046 31.988 24.9774C31.6677 24.9684 31.2485 24.9548 31.0553 24.9457C30.8622 24.9367 30.3111 24.9457 29.8307 24.9638Z" fill="white"/>
<path d="M18.686 27.8862C18.7379 28.6778 18.8745 29.4876 18.9875 29.6459C19.0817 29.7862 19.6893 29.9083 20.5419 29.9581C21.0412 29.9897 21.4322 29.9173 22.0728 29.6776L22.3884 29.56L22.6757 29.0895C22.8311 28.8271 22.9536 28.61 22.9442 28.6055C22.9347 28.6009 22.5815 28.5467 22.1528 28.4924C21.1119 28.3567 19.8165 28.144 19.5857 28.0717C19.4444 28.0264 19.3408 27.9359 19.1477 27.6962C18.9687 27.4745 18.8556 27.375 18.7755 27.366L18.6531 27.3479L18.686 27.8862Z" fill="white"/>
<path d="M37.3248 27.6781C37.174 27.8726 37.0186 28.0219 36.9244 28.0581C36.7595 28.1259 35.483 28.3386 34.3054 28.4924C33.8768 28.5466 33.5235 28.5964 33.5141 28.6055C33.5047 28.6145 33.6224 28.8181 33.7732 29.0714C34.0322 29.5012 34.0605 29.5283 34.3054 29.6369C34.8801 29.8812 35.2381 29.9581 35.7892 29.949C36.3262 29.9445 37.1316 29.8404 37.3389 29.75C37.4223 29.6978 37.4865 29.6219 37.5226 29.5328C37.6215 29.3021 37.7345 28.5602 37.7722 27.9088L37.8052 27.3569H37.6922C37.6027 27.3569 37.5179 27.4338 37.3248 27.6781Z" fill="white"/>
<path d="M25.549 28.5783C24.4326 28.6326 24.15 28.6778 23.9804 28.8362C23.7779 29.0171 23.3351 29.6731 23.3022 29.8359C23.2692 29.9988 23.2786 29.9988 23.7779 30.0711C25.5819 30.3199 31.7383 30.2883 32.8123 30.0214C33.0855 29.9535 33.0478 29.7952 32.6192 29.2116C32.2329 28.6869 32.2329 28.6869 31.4745 28.6235C30.7256 28.5602 26.6229 28.5285 25.549 28.5783Z" fill="white"/>
</g>
<path d="M22.703 41.2448C22.2604 41.2448 21.8364 41.1915 21.431 41.0848C21.0257 40.9728 20.6924 40.8262 20.431 40.6448L20.839 39.5008C21.0844 39.6662 21.3724 39.7968 21.703 39.8928C22.0337 39.9888 22.367 40.0368 22.703 40.0368C23.055 40.0368 23.3004 39.9915 23.439 39.9008C23.583 39.8048 23.655 39.6875 23.655 39.5488C23.655 39.4262 23.6044 39.3275 23.503 39.2528C23.407 39.1782 23.2337 39.1142 22.983 39.0608L22.047 38.8608C21.0337 38.6422 20.527 38.1115 20.527 37.2688C20.527 36.9008 20.6257 36.5782 20.823 36.3008C21.0257 36.0235 21.3057 35.8102 21.663 35.6608C22.0204 35.5062 22.4364 35.4288 22.911 35.4288C23.3004 35.4288 23.6684 35.4848 24.015 35.5968C24.367 35.7035 24.6524 35.8502 24.871 36.0368L24.463 37.1088C24.2604 36.9595 24.0257 36.8448 23.759 36.7648C23.4924 36.6795 23.2044 36.6368 22.895 36.6368C22.5964 36.6368 22.367 36.6902 22.207 36.7968C22.047 36.8982 21.967 37.0315 21.967 37.1968C21.967 37.3142 22.015 37.4102 22.111 37.4848C22.207 37.5595 22.3777 37.6235 22.623 37.6768L23.551 37.8768C24.5804 38.0955 25.095 38.6128 25.095 39.4288C25.095 39.7968 24.9964 40.1168 24.799 40.3888C24.6017 40.6608 24.3244 40.8715 23.967 41.0208C23.6097 41.1702 23.1884 41.2448 22.703 41.2448ZM27.0288 41.1568V36.7168H25.2368V35.5168H30.2928V36.7168H28.5008V41.1568H27.0288ZM33.3691 41.2448C32.7451 41.2448 32.2091 41.1248 31.7611 40.8848C31.3131 40.6448 30.9691 40.3062 30.7291 39.8688C30.4944 39.4315 30.3771 38.9195 30.3771 38.3328C30.3771 37.7462 30.4944 37.2368 30.7291 36.8048C30.9691 36.3675 31.3131 36.0288 31.7611 35.7888C32.2091 35.5488 32.7451 35.4288 33.3691 35.4288C33.7424 35.4288 34.1024 35.4875 34.4491 35.6048C34.7958 35.7168 35.0758 35.8662 35.2891 36.0528L34.8491 37.2128C34.6144 37.0422 34.3798 36.9168 34.1451 36.8368C33.9104 36.7515 33.6704 36.7088 33.4251 36.7088C32.9291 36.7088 32.5558 36.8502 32.3051 37.1328C32.0544 37.4102 31.9291 37.8102 31.9291 38.3328C31.9291 38.8608 32.0544 39.2662 32.3051 39.5488C32.5558 39.8262 32.9291 39.9648 33.4251 39.9648C33.6704 39.9648 33.9104 39.9248 34.1451 39.8448C34.3798 39.7595 34.6144 39.6315 34.8491 39.4608L35.2891 40.6208C35.0758 40.8075 34.7958 40.9595 34.4491 41.0768C34.1024 41.1888 33.7424 41.2448 33.3691 41.2448Z" fill="white"/>
<defs>
<clipPath id="clip0_1_168">
<rect width="22.1045" height="16.076" fill="white" transform="translate(17.0808 16.076)"/>
</clipPath>
</defs>
</svg>

<svg width="57" height="57" fill="none" xmlns="http://www.w3.org/2000/svg"><path d="M34.523 50.977c-12.414 3.327-25.174-4.04-28.5-16.454-3.327-12.414 4.04-25.174 16.454-28.5 12.414-3.327 25.174 4.04 28.5 16.454 3.327 12.414-4.04 25.174-16.454 28.5zM23.682 10.518c-9.931 2.661-15.825 12.87-13.164 22.8 2.661 9.931 12.87 15.825 22.8 13.164 9.931-2.661 15.825-12.87 13.164-22.8-2.661-9.931-12.87-15.825-22.8-13.164z" fill="#fff"/><g clip-path="url(#clip0_1_168)" fill="#fff"><path d="M26.204 16.093c-.97.018-1.705.054-1.903.09-.367.064-.546.19-.546.385v.113H22.44l-.377.362c-.593.57-1.262 1.606-1.964 3.04-.39.81-.419.85-.546.85-.113 0-.132-.018-.132-.127.005-.226.165-.493.367-.592.189-.09.269-.2.217-.285-.038-.059-1.046-.01-1.61.077-.891.14-1.193.357-1.3.94-.03.154-.02.186.112.304a.734.734 0 00.297.158 32.75 32.75 0 001.766.113h.175l-.34.326c-.334.312-.438.488-.438.746 0 .127-.094.218-.72.738-.278.23-.542.466-.58.52-.127.186-.16 1.466-.127 4.786.028 3.072.033 3.162.123 3.275.179.217.32.24 1.493.24 1.215 0 1.342-.023 1.507-.28.07-.113.094-.227.094-.48v-.335l.386.027c.217.014.721.037 1.122.055l.73.022.621-.18c.344-.105.632-.186.641-.186.01 0 .033.04.047.09.024.09.066.09 4.131.09s4.107 0 4.131-.09c.014-.05.033-.09.047-.09.014 0 .297.081.64.185l.622.181.73-.022c.4-.018.905-.041 1.122-.055l.386-.027v.335c0 .253.023.367.094.48.165.257.292.28 1.507.28 1.173 0 1.314-.023 1.493-.24.09-.113.095-.203.123-3.275.033-3.32 0-4.6-.127-4.786-.038-.054-.302-.29-.58-.52-.626-.52-.72-.611-.72-.738 0-.258-.104-.434-.429-.741l-.334-.317.96-.055c1.009-.058 1.207-.104 1.338-.298.057-.081.062-.145.02-.321-.123-.52-.42-.72-1.282-.855-.565-.086-1.573-.136-1.61-.077-.053.086.027.194.216.285.202.1.362.366.367.593 0 .108-.019.126-.132.126-.127 0-.155-.04-.546-.85-.702-1.434-1.37-2.47-1.964-3.04l-.377-.362h-1.314v-.109c0-.19-.146-.307-.476-.37-.504-.105-3.208-.155-5.836-.11zm3.25 1.221c1.23.055 4.093.213 4.48.253l.268.028.683 1.293c.626 1.195 1.022 2.036 1.022 2.18 0 .05-.688.055-3.683.023-2.03-.022-3.868-.04-4.089-.04-.221 0-2.058.018-4.084.04-3 .032-3.688.028-3.688-.022 0-.145.396-.986 1.022-2.18l.683-1.294.269-.027c.362-.037 3.226-.204 4.29-.25 1.268-.054 1.65-.054 2.827-.004zm-9.812 6.921c.41.123 1.343.371 2.068.548l1.328.321.274-.127.278-.13h1.907c1.823 0 1.917.004 2.068.09.306.176.358.285.372.864.02.565-.014.71-.212.886-.155.14-.593.168-1.945.122-1.498-.054-1.898-.171-2.421-.728l-.269-.28-.433-.018-.433-.018-.354.23c-.353.23-.353.23-.735.23-.39 0-1.921-.22-2.373-.343-.636-.172-.867-.439-.867-.99 0-.38.08-.634.235-.729.095-.063.4-.127.688-.15.042 0 .415.096.824.222zm18.422-.108c.212.081.307.312.311.742.005.543-.179.787-.73.972-.348.123-1.776.344-2.35.367l-.542.023L34.4 26l-.353-.235-.424.018-.424.018-.354.339c-.277.271-.41.366-.63.443-.472.168-1.103.231-2.332.24-1.253.005-1.282 0-1.465-.294-.08-.122-.095-.23-.095-.67 0-.47.01-.542.109-.674a.908.908 0 01.268-.244c.16-.09.231-.095 2.073-.095h1.908l.268.131.269.132 1.337-.322a44.112 44.112 0 002.063-.552c.65-.203.754-.221 1.008-.198.15.014.296.044.438.09zM19.006 27.23c.104.108.202.221.293.34.078.105.163.207.254.303.08.045 1.04.212 1.997.343 1.606.217 1.64.227 1.64.313 0 .04-.142.316-.316.615-.32.534-.32.534-.617.665-.42.185-1.117.353-1.447.353-.343 0-1.276-.109-1.587-.181a.7.7 0 01-.315-.162.66.66 0 01-.189-.29c-.099-.304-.193-1.023-.226-1.688l-.028-.665h.235c.128 0 .264.027.306.054zm18.96.633c-.038.756-.16 1.557-.288 1.81a.553.553 0 01-.235.235c-.217.095-.89.204-1.508.235-.466.028-.57.019-.97-.085a6.528 6.528 0 01-.754-.25c-.306-.13-.306-.135-.603-.633-.367-.61-.386-.674-.24-.728.061-.023.452-.081.867-.136.88-.117 2.058-.298 2.421-.375.23-.05.269-.077.513-.371.147-.177.288-.335.311-.353.024-.018.156-.036.283-.036h.23l-.028.688zm-6.383.575c.273.027.551.068.612.09.165.06.391.3.688.724.236.34.264.412.268.611.005.2-.014.235-.117.285-.617.285-5.865.39-8.596.172-1.22-.1-1.376-.154-1.329-.484.042-.299.598-1.086.89-1.258.156-.09.457-.126 1.428-.18.852-.05 5.544-.019 6.156.04z"/><path d="M24.574 24.96c-.697.022-.88.04-.98.103-.15.1-.16.267-.028.674.141.44.273.548.923.765.415.14.433.14 1.691.172.806.022 1.31.018 1.376-.01.216-.094.296-.501.202-1.049-.099-.57-.155-.606-1.013-.638-1.154-.04-1.337-.04-2.171-.018zm5.256.004c-.95.032-1.14.072-1.22.258-.07.158-.145.61-.145.855 0 .253.117.533.25.588.065.027.583.031 1.375.009 1.257-.032 1.276-.032 1.69-.172.65-.217.783-.326.924-.765.212-.651.136-.732-.716-.76-.32-.009-.74-.022-.933-.031-.193-.01-.744 0-1.224.018zm-11.144 2.922c.052.792.189 1.602.302 1.76.094.14.701.262 1.554.312.5.032.89-.04 1.53-.28l.316-.118.288-.47c.155-.263.278-.48.268-.485a20.82 20.82 0 00-.791-.113c-1.041-.135-2.336-.348-2.567-.42-.142-.046-.245-.136-.438-.376-.18-.222-.292-.321-.372-.33l-.123-.018.033.538zm18.639-.208c-.151.195-.306.344-.4.38-.165.068-1.442.28-2.62.434a12.84 12.84 0 00-.79.113c-.01.01.107.213.258.466.26.43.287.457.532.566.575.244.933.321 1.484.312.537-.005 1.343-.109 1.55-.199a.461.461 0 00.184-.217c.098-.23.211-.973.25-1.624l.032-.552h-.113c-.09 0-.174.077-.367.321zm-11.776.9c-1.116.055-1.399.1-1.569.258-.202.181-.645.837-.678 1-.033.163-.023.163.476.235 1.804.249 7.96.217 9.034-.05.274-.068.236-.226-.193-.81-.386-.524-.386-.524-1.145-.587-.748-.064-4.851-.095-5.925-.046z"/></g><path d="M22.703 41.245a4.96 4.96 0 01-1.272-.16c-.405-.112-.739-.259-1-.44l.408-1.144c.245.165.533.296.864.392.33.096.664.144 1 .144.352 0 .597-.045.736-.136.144-.096.216-.214.216-.352a.35.35 0 00-.152-.296c-.096-.075-.27-.139-.52-.192l-.936-.2c-1.013-.219-1.52-.75-1.52-1.592 0-.368.099-.69.296-.968a1.94 1.94 0 01.84-.64c.357-.155.773-.232 1.248-.232.39 0 .757.056 1.104.168.352.106.637.253.856.44l-.408 1.072a2.28 2.28 0 00-.704-.344 2.82 2.82 0 00-.864-.128c-.299 0-.528.053-.688.16-.16.101-.24.235-.24.4a.35.35 0 00.144.288c.096.075.267.139.512.192l.928.2c1.03.218 1.544.736 1.544 1.552 0 .368-.099.688-.296.96a1.904 1.904 0 01-.832.632c-.357.15-.779.224-1.264.224zm4.326-.088v-4.44h-1.792v-1.2h5.056v1.2H28.5v4.44h-1.472zm6.34.088c-.624 0-1.16-.12-1.608-.36a2.493 2.493 0 01-1.032-1.016c-.235-.438-.352-.95-.352-1.536 0-.587.117-1.096.352-1.528a2.49 2.49 0 011.032-1.016c.448-.24.984-.36 1.608-.36.373 0 .733.058 1.08.176.347.112.627.261.84.448l-.44 1.16a2.668 2.668 0 00-.704-.376 2.093 2.093 0 00-.72-.128c-.496 0-.87.141-1.12.424-.25.277-.376.677-.376 1.2 0 .528.125.933.376 1.216.25.277.624.416 1.12.416.245 0 .485-.04.72-.12a2.87 2.87 0 00.704-.384l.44 1.16a2.456 2.456 0 01-.84.456 3.491 3.491 0 01-1.08.168z" fill="#fff"/><defs><clipPath id="clip0_1_168"><path fill="#fff" transform="translate(17.08 16.076)" d="M0 0h22.105v16.076H0z"/></clipPath></defs></svg>
